src/assets/location-marker-icon-white.svg

<svg width="14" height="20" viewBox="0 0 14 20" fill="none" xmlns="http://www.w3.org/2000/svg">
<path d="M3.53162 0.936771C5.71648 -0.332726 8.40203 -0.310537 10.5664 0.994894C12.7095 2.32691 14.012 4.70418 13.9999 7.26144C13.95 9.80194 12.5533 12.19 10.8075 14.0361C9.79983 15.1064 8.67261 16.0528 7.44884 16.856C7.32281 16.9289 7.18475 16.9777 7.04148 17C6.9036 16.9941 6.76932 16.9534 6.65075 16.8814C4.78243 15.6746 3.14333 14.134 1.81233 12.334C0.698587 10.8314 0.0658345 9.01601 0 7.13442L0.00498622 6.86069C0.0959221 4.40464 1.4248 2.16093 3.53162 0.936771ZM7.90726 5.03477C7.01907 4.65723 5.99504 4.86235 5.31332 5.55435C4.63159 6.24635 4.42664 7.28872 4.79416 8.19478C5.16168 9.10084 6.02918 9.69184 6.9916 9.69185C7.6221 9.69638 8.22819 9.44383 8.67481 8.99048C9.12143 8.53712 9.37148 7.92064 9.36926 7.27838C9.37261 6.29804 8.79546 5.41231 7.90726 5.03477Z" fill="#FFF"/>
<path d="M3.53162 0.936771C5.71648 -0.332726 8.40203 -0.310537 10.5664 0.994894C12.7095 2.32691 14.012 4.70418 13.9999 7.26144C13.95 9.80194 12.5533 12.19 10.8075 14.0361C9.79983 15.1064 8.67261 16.0528 7.44884 16.856C7.32281 16.9289 7.18475 16.9777 7.04148 17C6.9036 16.9941 6.76932 16.9534 6.65075 16.8814C4.78243 15.6746 3.14333 14.134 1.81233 12.334C0.698587 10.8314 0.0658345 9.01601 0 7.13442L0.00498622 6.86069C0.0959221 4.40464 1.4248 2.16093 3.53162 0.936771ZM7.90726 5.03477C7.01907 4.65723 5.99504 4.86235 5.31332 5.55435C4.63159 6.24635 4.42664 7.28872 4.79416 8.19478C5.16168 9.10084 6.02918 9.69184 6.9916 9.69185C7.6221 9.69638 8.22819 9.44383 8.67481 8.99048C9.12143 8.53712 9.37148 7.92064 9.36926 7.27838C9.37261 6.29804 8.79546 5.41231 7.90726 5.03477Z" fill="#FFF"/>
<g opacity="0.4">
<path d="M7 20C9.76142 20 12 19.5523 12 19C12 18.4477 9.76142 18 7 18C4.23858 18 2 18.4477 2 19C2 19.5523 4.23858 20 7 20Z" fill="#FFF"/>
<path d="M7 20C9.76142 20 12 19.5523 12 19C12 18.4477 9.76142 18 7 18C4.23858 18 2 18.4477 2 19C2 19.5523 4.23858 20 7 20Z" fill="#FFF"/>
</g>
</svg>

<svg width="14" height="20" fill="none" xmlns="http://www.w3.org/2000/svg"><path d="M3.532.937a6.89 6.89 0 017.034.058C12.71 2.327 14.012 4.705 14 7.26c-.05 2.54-1.447 4.929-3.193 6.775a18.727 18.727 0 01-3.358 2.82A1.174 1.174 0 017.04 17a.82.82 0 01-.39-.119 18.515 18.515 0 01-4.839-4.547A9.28 9.28 0 010 7.134l.005-.273c.09-2.456 1.42-4.7 3.527-5.924zm4.375 4.098a2.346 2.346 0 00-2.594.52 2.455 2.455 0 00-.519 2.64 2.378 2.378 0 002.198 1.497 2.339 2.339 0 001.683-.702 2.43 2.43 0 00.694-1.712 2.423 2.423 0 00-1.462-2.243z" fill="#FFF"/><path d="M3.532.937a6.89 6.89 0 017.034.058C12.71 2.327 14.012 4.705 14 7.26c-.05 2.54-1.447 4.929-3.193 6.775a18.727 18.727 0 01-3.358 2.82A1.174 1.174 0 017.04 17a.82.82 0 01-.39-.119 18.515 18.515 0 01-4.839-4.547A9.28 9.28 0 010 7.134l.005-.273c.09-2.456 1.42-4.7 3.527-5.924zm4.375 4.098a2.346 2.346 0 00-2.594.52 2.455 2.455 0 00-.519 2.64 2.378 2.378 0 002.198 1.497 2.339 2.339 0 001.683-.702 2.43 2.43 0 00.694-1.712 2.423 2.423 0 00-1.462-2.243z" fill="#FFF"/><g opacity=".4" fill="#FFF"><path d="M7 20c2.761 0 5-.448 5-1s-2.239-1-5-1-5 .448-5 1 2.239 1 5 1z"/><path d="M7 20c2.761 0 5-.448 5-1s-2.239-1-5-1-5 .448-5 1 2.239 1 5 1z"/></g></svg>
